assets/img/icons/duotone-icons/Files/Group-folders.svg

<?xml version="1.0" encoding="UTF-8"?>
<svg width="24px" height="24px" viewBox="0 0 24 24" version="1.1" xmlns="http://www.w3.org/2000/svg" xmlns:xlink="http://www.w3.org/1999/xlink">
    <!-- Generator: Sketch 52.2 (67145) - http://www.bohemiancoding.com/sketch -->
    <title>Stockholm-icons / Files / Group-folders</title>
    <desc>Created with Sketch.</desc>
    <g id="Stockholm-icons-/-Files-/-Group-folders" stroke="none" stroke-width="1" fill="none" fill-rule="evenodd">
        <rect id="bound" x="0" y="0" width="24" height="24"></rect>
        <path d="M4.5,21 L21.5,21 C22.3284271,21 23,20.3284271 23,19.5 L23,8.5 C23,7.67157288 22.3284271,7 21.5,7 L11,7 L8.43933983,4.43933983 C8.15803526,4.15803526 7.77650439,4 7.37867966,4 L4.5,4 C3.67157288,4 3,4.67157288 3,5.5 L3,19.5 C3,20.3284271 3.67157288,21 4.5,21 Z" id="Combined-Shape" fill="#335EEA" opacity="0.3"></path>
        <path d="M2.5,19 L19.5,19 C20.3284271,19 21,18.3284271 21,17.5 L21,6.5 C21,5.67157288 20.3284271,5 19.5,5 L9,5 L6.43933983,2.43933983 C6.15803526,2.15803526 5.77650439,2 5.37867966,2 L2.5,2 C1.67157288,2 1,2.67157288 1,3.5 L1,17.5 C1,18.3284271 1.67157288,19 2.5,19 Z" id="Combined-Shape-Copy" fill="#335EEA"></path>
    </g>
</svg>

<svg width="24" height="24" viewBox="0 0 24 24" xmlns="http://www.w3.org/2000/svg"><g fill="none" fill-rule="evenodd"><path d="M0 0h24v24H0z"/><path d="M4.5 21h17a1.5 1.5 0 001.5-1.5v-11A1.5 1.5 0 0021.5 7H11L8.44 4.44A1.5 1.5 0 007.378 4H4.5A1.5 1.5 0 003 5.5v14A1.5 1.5 0 004.5 21z" fill="#335EEA" opacity=".3"/><path d="M2.5 19h17a1.5 1.5 0 001.5-1.5v-11A1.5 1.5 0 0019.5 5H9L6.44 2.44A1.5 1.5 0 005.378 2H2.5A1.5 1.5 0 001 3.5v14A1.5 1.5 0 002.5 19z" fill="#335EEA"/></g></svg>
